!!!OTL: LAET ONS TSAAM IN VRIENDSCHAP LEVEN
!!!ARE: Europa, Mitteleuropa, flaemisch
!!!SCT: B0717
!!!YEM: Copyright 1995, estate of Helmut Schaffrath.
**kern
*ICvox
*Ivox
*M4/4
*k[f#]
*G:
{8g
8a
8b
8cc
=1
4dd
8cc
8b
4ee
4ee
=2
4ee
4dd}
{4cc
8cc
8a
=3
4b
8b
8g
4a
8a
8fn
=4
2g}
{8g
8a
8b
8cc
=5
4dd
8cc
8b
4ee
4ee
=6
4ee
4dd}
{4cc
8cc
8a
=7
4b
8b
8g
4a
8a
8fn
=8
2g}
{4dd
8dd
8b
=9
4cc
8cc
8a
4b
8b
8g
=10
4a
4d}
{4dd
8dd
8b
=11
4cc
8cc
8a
4b
8b
8g
=12
4a
4d}
{8g
8a
8b
8cc
=13
4dd
8cc
8b
4cc
4gg
=14
[2dd
8dd]
8ee
8dd
8ee
=15
2dd}
{4cc
8cc
8a
=16
4b
8b
8g
4a
8a
8f#
=17
2g}
==
!!!AGN: Freimaurer - Lied
!!!ONB: ESAC (Essen Associative Code) Database: BOEHME
!!!AMT: simple quadruple
!!!AIN: vox
!!!EED: Helmut Schaffrath
!!!EEV: 1.0
*-
